Numix-GalliumOS/64/mimetypes/application-users.svg

<svg xmlns="http://www.w3.org/2000/svg" xmlns:xlink="http://www.w3.org/1999/xlink" width="64px" height="64px" viewBox="0 0 64 64" version="1.1">
<g id="surface1">
<path style=" stroke:none;fill-rule:nonzero;fill:rgb(41.960784%,49.019608%,66.666667%);fill-opacity:1;" d="M 10.671875 0 C 9.296875 0 8 1.355469 8 2.789062 L 8 61.210938 C 8 62.566406 9.375 64 10.671875 64 L 53.328125 64 C 54.625 64 56 62.566406 56 61.210938 L 56 18 L 38 0 Z M 10.671875 0 "/>
<path style=" stroke:none;fill-rule:nonzero;fill:rgb(0%,0%,0%);fill-opacity:0.196078;" d="M 42 18 L 56 32 L 56 18 Z M 42 18 "/>
<path style=" stroke:none;fill-rule:nonzero;fill:rgb(100%,100%,100%);fill-opacity:0.392157;" d="M 38 0 L 55.984375 18 L 40.757812 18 C 39.410156 18 38 16.574219 38 15.226562 Z M 38 0 "/>
<path style=" stroke:none;fill-rule:nonzero;fill:rgb(100%,100%,100%);fill-opacity:1;" d="M 36 24 L 40 24 C 44 24 44 28 44 28 L 44 34 C 44 35.570312 42 38 42 38 L 42 40 L 46 42.859375 L 46 46 L 28 46 L 28 43.15625 L 34 40 L 34 38 C 34 38 31.992188 35.570312 32 34 L 32 28 C 32 28 32 24 36 24 Z M 25.773438 27.140625 L 28 27.234375 L 28 33.40625 C 28 34.980469 30 38 30 38 L 26 41.289062 L 26 44 L 18 44 L 18 42.808594 L 24 40 L 24 38.257812 C 24 38.257812 21.101562 34.949219 21.117188 33.375 L 21.117188 31.855469 C 21.117188 27.140625 25.773438 27.140625 25.773438 27.140625 Z M 25.773438 27.140625 "/>
</g>
</svg>

<svg xmlns="http://www.w3.org/2000/svg" viewBox="0 0 64 64">
 <g>
  <path d="m 10.672 0 c -1.375 0 -2.672 1.355 -2.672 2.789 l 0 58.42 c 0 1.355 1.375 2.789 2.672 2.789 l 42.656 0 c 1.297 0 2.672 -1.434 2.672 -2.789 l 0 -43.21 l -18 -18 m -27.328 0" style="fill:#6a7daa;fill-opacity:1;stroke:none;fill-rule:nonzero"/>
  <path d="m 42 18 l 14 14 l 0 -14 m -14 0" style="fill:#000;fill-opacity:0.196;stroke:none;fill-rule:nonzero"/>
  <path d="m 38 0 l 17.984 18 l -15.227 0 c -1.348 0 -2.758 -1.426 -2.758 -2.773 m 0 -15.227" style="fill:#fff;fill-opacity:0.392;stroke:none;fill-rule:nonzero"/>
  <path d="m 36 24 l 4 0 c 4 0 4 4 4 4 l 0 6 c 0 1.57 -2 4 -2 4 l 0 2 l 4 2.859 l 0 3.141 l -18 0 l 0 -2.844 l 6 -3.156 l 0 -2 c 0 0 -2.01 -2.43 -2 -4 l 0 -6 c 0 0 0 -4 4 -4 m -10.227 3.141 l 2.227 0.094 l 0 6.172 c 0 1.574 2 4.594 2 4.594 l -4 3.289 l 0 2.711 l -8 0 l 0 -1.191 l 6 -2.809 l 0 -1.742 c 0 0 -2.898 -3.309 -2.883 -4.883 l 0 -1.52 c 0 -4.715 4.656 -4.715 4.656 -4.715 m 0 0" style="fill:#fff;fill-opacity:1;stroke:none;fill-rule:nonzero"/>
 </g>
</svg>
